X:1
T:Title
%%score { ( 1 4 ) | ( 2 3 ) }
L:1/8
M:4/4
K:Db
V:1 treble nm="Grand Piano"
V:4 treble 
V:2 bass 
V:3 bass 
V:1
 z4 z2 z[Q:1/4=100] [FA] | [FA]2 [_F=G][=FA] [Fd]3 F | FG/F/ [D_F][A,D=F] [DFA]2 [CEG]>[CEG] | %3
 [CEG]2 [DF][EG] [Gc]3 [CGB] | [GB]2 [FA]2 [DF]3 [FA] | [FA]2 [_F=G][=FA] [Af]3 [Fd] | %6
 dcdB [DFA]2 [A,DF]>[A,DF] | [A,CE]2 [A,A]B c e2 [Ec] |[M:7/8] [Ec]2 [DEB]2 [A,CA]3 |[M:1/8] [FA] | %10
[M:4/4] A->[FA-] [FA][FA] [Fd]3 [DF] | [DF][EG][FA][GB] [GB]2 [FA]>[Fd] | %12
 [Ec]2 [CE]2 [CEG]3 [CGB] | [DGB]2 [DFA]2 [A,DF]4 | [DFA]2 [A,DF]>[A,EG] [DFA]2 [Fd]2 | %15
 [Af][Ge][Fd][GB] [FA]2 [DF]>[FA] | B2 B2 e3 d | %17
[M:17/16] d-<dc-[Gc][Fd]/-[Fd]/-[Fd]/-[Fd]/-[Fd]/-[Fd]-<[Fd] |] %18
V:2
 z4 z2 z [D,D] | [D,D]2 [D,D]2 [D,A,]3 [D,A,D] | .D2 z2 z4 | A,,2 [A,,A,]2 [A,,A,]3 A,, | %4
 [D,D]2 [D,D]2 [D,A,]3 [D,D] | [D,D]2 [D,D]2 [D,D]3 [D,A,] | [G,G]2 [G,G]2 z4 | z4 [A,E]4 | %8
[M:7/8] [E,A,]2 E,2 z2 G |[M:1/8] [D,D] |[M:4/4] [D,D]>[D,D] [D,D][D,D] [D,A,]3 [D,A,] | %11
 [D,A,]2 [D,D]2 [D,D]2 [D,D]>[D,A,] | A,2 A,2 A,3 A,, | D,2 D,2 D,4 | D,2 D,>D, D,2 [D,A,]2 | %15
 [D,D]2 [D,D]2 [D,D]2 [D,A,]>[D,D] | [G,DG]2 [G,DG]2 [G,B,G]3 [G,=A,G] | %17
[M:17/16] [A,F]-<[A,F][K:bass][A,,A,]-<[A,,A,][D,A,]/-[D,A,]/-[D,A,]/-[D,A,]/-[D,A,]/-[D,A,]-<[D,A,] |] %18
V:3
 x8 | x8 | [D,A,]-[D,-A,-E]/[D,-A,D]/ [D,=G,]D, A,2 A,>A,, | x8 | x8 | x8 | B,=A,B,D D,2 D,>D, | %7
 A,,2 C,[E,=G,] z C2 [A,,A,] |[M:7/8] z z z2 A,,3 |[M:1/8] x |[M:4/4] x8 | x8 | x8 | x8 | x8 | x8 | %16
 x8 |[M:17/16] x2[K:bass] x13/2 |] %18
V:4
 x8 | x8 | x8 | x8 | x8 | x8 | x8 | z2 E2 z4 |[M:7/8] z z z2 E2 z |[M:1/8] x |[M:4/4] F2 z2 z4 | %11
 x8 | x8 | x8 | x8 | x8 | x8 |[M:17/16] z/ z/ z .E3/2 z/ z/ z/ z/ z/ z/ z/ z/ z |] %18

